icons/solid/chip.svg

<svg width="24" height="24" viewBox="0 0 24 24" fill="none" xmlns="http://www.w3.org/2000/svg">
<path fill-rule="evenodd" clip-rule="evenodd" d="M10 3C10 2.44772 9.55228 2 9 2C8.44772 2 8 2.44772 8 3V4H7C5.34315 4 4 5.34315 4 7V8H3C2.44772 8 2 8.44772 2 9C2 9.55228 2.44772 10 3 10H4V14H3C2.44772 14 2 14.4477 2 15C2 15.5523 2.44772 16 3 16H4V17C4 18.6569 5.34315 20 7 20H8V21C8 21.5523 8.44772 22 9 22C9.55228 22 10 21.5523 10 21V20H14V21C14 21.5523 14.4477 22 15 22C15.5523 22 16 21.5523 16 21V20H17C18.6569 20 20 18.6569 20 17V16H21C21.5523 16 22 15.5523 22 15C22 14.4477 21.5523 14 21 14H20V10H21C21.5523 10 22 9.55228 22 9C22 8.44772 21.5523 8 21 8H20V7C20 5.34315 18.6569 4 17 4H16V3C16 2.44772 15.5523 2 15 2C14.4477 2 14 2.44772 14 3V4H10V3ZM9.75 9C9.33579 9 9 9.33579 9 9.75V14.25C9 14.6642 9.33579 15 9.75 15H14.25C14.6642 15 15 14.6642 15 14.25V9.75C15 9.33579 14.6642 9 14.25 9H9.75ZM12 11C11.4477 11 11 11.4477 11 12C11 12.5523 11.4477 13 12 13C12.5523 13 13 12.5523 13 12C13 11.4477 12.5523 11 12 11Z" fill="currentColor"/>
</svg>

<svg width="24" height="24" fill="none" xmlns="http://www.w3.org/2000/svg"><path fill-rule="evenodd" clip-rule="evenodd" d="M10 3a1 1 0 00-2 0v1H7a3 3 0 00-3 3v1H3a1 1 0 000 2h1v4H3a1 1 0 100 2h1v1a3 3 0 003 3h1v1a1 1 0 102 0v-1h4v1a1 1 0 102 0v-1h1a3 3 0 003-3v-1h1a1 1 0 100-2h-1v-4h1a1 1 0 100-2h-1V7a3 3 0 00-3-3h-1V3a1 1 0 10-2 0v1h-4V3zm-.25 6a.75.75 0 00-.75.75v4.5c0 .414.336.75.75.75h4.5a.75.75 0 00.75-.75v-4.5a.75.75 0 00-.75-.75h-4.5zM12 11a1 1 0 100 2 1 1 0 000-2z" fill="currentColor"/></svg>
